X:54
T:Bishop's Hey
C:Jill Lawrence?
L:1/4
M:2/2
S:Colin Hume's website,  colinhume.com  - chords can also be printed below the stave.
Q:1/2=110
K:G
P:A
|: "G"GG AG | "C"E2 G2 | "C"GG AG | "D"D4 | "G"GG "G7"AB | "C"cB "Am"AG | "D"AF ED | "G"G4 :|
P:B
|: "C"c2 dc | "G"B2 "D7"A2 | "Em"G2 ce | "D"d4 | "Am"AB cB | "/"AG FE | "D"D2 "D7"A2 | "G"G4 :|
P:C
|: "C"cB AG | "Am"E2 G2 | "D"dc "D7;B7"BA | "G;Em"G2- "/;G7"G2 | "Am"AB cd | "D"fe dD | "C"E2 "D7"F2 | "G"G4 :|

